images/billing-software/DCT.svg

<svg height="391" viewBox="0 0 1947 391" width="1947" xmlns="http://www.w3.org/2000/svg"><path d="m822.43 76.44c0 39.02-29.42 67.61-70.19 67.61h-54.62v-135.22h55.2c40.38 0 69.61 28.39 69.61 67.61zm-22.88.19c0-27.62-20.58-47.33-47.12-47.33h-32.12v94.28h33.08c26.16 0 46.16-19.51 46.16-46.95zm142.92-35.35v102.78h-22.12v-20.1c-6.92 14.3-19.81 20.67-36.54 20.86-23.46 0-37.5-15.06-37.5-39.6v-63.94h22.11v57.76c0 15.46 9.04 24.92 23.85 24.92 17.7-.38 28.08-14.1 28.08-32.07v-50.61zm77.43 18.74c-17.7 0-30.38 13.33-30.38 32.84s12.68 32.84 30.38 32.84c12.88 0 23.27-4.25 30.19-12.36l12.31 12.36c-9.23 12.17-24.04 19.13-43.46 19.13-30.39 0-51.54-21.06-51.54-51.97 0-31.1 21.15-52.35 51.54-52.35 18.47 0 32.89 5.99 42.31 16.8l-12.12 14.3c-7.11-7.34-16.92-11.78-29.23-11.59zm104.84 36.89-17.3 18.37v28.78h-22.12v-143.35h22.12v86.55l45.19-45.98h25.38l-37.88 39.8 40.77 62.98h-26.15zm202.68-68.38c-26.92 0-48.08 20.86-48.08 47.52s21.16 47.72 48.08 47.72c13.47 0 27.32-6.18 37.5-16.03l13.46 15.06c-13.64 13.52-33.07 22.22-52.11 22.22-39.43 0-70-29.94-70-68.77 0-38.45 30.96-68 70.77-68 19.04 0 38.08 7.92 51.16 20.86l-13.28 16.61c-9.8-10.62-23.84-17.19-37.5-17.19zm129.26 11.98v21.25c-20.57-1.16-33.65 11.01-35.38 28.59v53.7h-22.12v-102.77h22.12v20.48c6.92-13.91 19.23-21.25 35.38-21.25zm33.27 60.66c3.46 15.84 15.58 25.69 31.73 25.69 11.16 0 21.35-4.24 28.85-11.98l11.73 12.57c-10 11-24.62 17.38-42.31 17.38-31.54 0-52.31-21.05-52.31-51.97 0-31.11 21.35-52.16 51.73-52.35 35.96 0 50.58 23.56 47.89 60.66zm58.08-16.23c-.77-16.62-11.73-26.66-28.47-26.66-16.15 0-27.69 10.24-30 26.66zm58.61 16.23c3.47 15.84 15.58 25.69 31.73 25.69 11.15 0 21.35-4.24 28.85-11.98l11.73 12.57c-10 11-24.62 17.38-42.3 17.38-31.55 0-52.32-21.05-52.32-51.97 0-31.11 21.34-52.16 51.73-52.35 35.96 0 50.58 23.56 47.89 60.66zm58.08-16.23c-.77-16.62-11.73-26.66-28.47-26.66-16.15 0-27.69 10.24-30 26.66zm83.93 11.97-17.3 18.37v28.78h-22.12v-143.35h22.12v86.55l45.19-45.98h25.39l-37.89 39.8 40.77 62.98h-26.15z" fill="#4e4a54" fill-rule="evenodd"/><path d="m790.8 216.67v20.48h-42.7v114.75h-22.69v-114.75h-42.5v-20.48zm17.32 92.34c3.47 15.85 15.58 25.7 31.73 25.7 11.15 0 21.35-4.25 28.85-11.98l11.73 12.56c-10 11.01-24.62 17.38-42.31 17.38-31.54 0-52.31-21.05-52.31-51.96 0-31.11 21.34-52.16 51.73-52.36 35.96 0 50.58 23.57 47.89 60.66zm58.08-16.22c-.77-16.62-11.73-26.66-28.47-26.66-16.15 0-27.69 10.23-30 26.66zm88.8-24.92c-17.7 0-30.38 13.32-30.38 32.84 0 19.51 12.68 32.84 30.38 32.84 12.88 0 23.27-4.25 30.19-12.36l12.31 12.36c-9.23 12.17-24.04 19.13-43.46 19.13-30.39 0-51.54-21.07-51.54-51.97 0-31.11 21.15-52.35 51.54-52.35 18.47 0 32.89 5.98 42.3 16.8l-12.11 14.3c-7.12-7.34-16.92-11.79-29.23-11.59zm163.5 20.09v63.94h-22.11v-57.76c0-15.46-9.24-24.92-24.63-24.92-18.27.19-29.23 13.91-29.23 32.07v50.61h-22.12v-143.34h22.12v60.66c7.31-14.49 20.39-20.86 37.89-20.86 23.85 0 38.08 15.06 38.08 39.6zm128.59 0v63.94h-22.11v-57.76c0-15.46-9.24-24.92-24.63-24.92-16.92.19-27.5 11.97-29.03 28.01v54.67h-22.11v-102.78h22.11v19.71c7.3-14.29 20.38-20.47 37.69-20.47 23.85 0 38.08 15.06 38.08 39.6zm129.48 12.36c0 31.1-21.74 52.35-53.28 52.35-31.73 0-53.45-21.25-53.45-52.35 0-30.91 21.72-51.97 53.45-51.97 31.54 0 53.28 21.06 53.28 51.97zm-84.62.39c0 19.89 12.88 33.42 31.34 33.42 18.27 0 31.16-13.53 31.16-33.42 0-19.71-12.89-33.43-31.16-33.43-18.46 0-31.34 13.72-31.34 33.43zm109.9-92.16h22.11v143.34h-22.11zm153.84 91.77c0 31.1-21.73 52.35-53.27 52.35-31.73 0-53.46-21.25-53.46-52.35 0-30.91 21.73-51.97 53.46-51.97 31.54 0 53.27 21.06 53.27 51.97zm-84.61.39c0 19.89 12.88 33.42 31.34 33.42 18.27 0 31.16-13.53 31.16-33.42 0-19.71-12.89-33.43-31.16-33.43-18.46 0-31.34 13.72-31.34 33.43zm203.49-51.58v92.72c0 29.56-20.96 48.1-53.08 48.1-15.96 0-30-5.01-42.5-13.51l9.43-16.04c9.62 7.15 19.61 11.21 32.11 11.21 19.42 0 32.12-11.4 32.12-29.18v-12.94c-6.93 11.21-18.46 17.39-33.85 17.39-27.69 0-46.16-20.1-46.16-49.65 0-28.98 18.28-48.68 45.39-48.87 15.77-.2 27.5 6.18 34.62 17.38v-16.61zm-51.34 17.19c-17.51 0-29.62 13.13-29.81 31.49.19 18.54 12.11 31.68 29.81 31.68 17.3 0 29.42-13.14 29.42-31.68s-12.12-31.49-29.42-31.49zm82.88-17.2h21.92v102.77h-21.92zm10.96-16.22c-7.31 0-12.89-5.6-12.89-13.13 0-7.74 5.58-13.34 12.89-13.34s12.88 5.6 12.88 13.34c0 7.53-5.57 13.13-12.88 13.13zm57.39 76.11c3.48 15.85 15.59 25.7 31.74 25.7 11.15 0 21.34-4.25 28.84-11.98l11.74 12.56c-10 11.01-24.62 17.38-42.31 17.38-31.54 0-52.31-21.05-52.31-51.96 0-31.11 21.34-52.16 51.73-52.36 35.96 0 50.58 23.57 47.89 60.66zm58.08-16.22c-.77-16.62-11.73-26.66-28.46-26.66-16.16 0-27.69 10.23-30 26.66zm74.09-26.86c-8.65 0-14.99 2.9-14.99 10.24 0 18.94 54.42 8.69 54.23 45.98 0 21.05-18.66 30.52-39.24 30.52-14.99 0-30.97-5.01-41.15-14.3l7.88-15.83c8.85 7.92 23.08 12.74 34.24 12.74 9.42 0 16.73-3.27 16.73-11.01 0-21.05-53.85-9.26-53.66-46.36 0-20.86 18.08-29.75 37.69-29.75 12.89 0 26.54 3.87 35.77 10.43l-8.08 16.42c-9.03-5.6-20.38-9.08-29.42-9.08z" fill="#9c9896" fill-rule="evenodd"/><path d="m545.34 135.03-77.61-45.01v90.02z" fill="#ffa360"/><path d="m390.12 135.03-77.62 45.01 77.62 45.01 77.61-45.01v-90.02z" fill="#3b3487"/><path d="m234.89 45.01-77.61 45.01 77.61 45.01 77.61 45.01v-90.02-90.02z" fill="#7e6bf4"/><path d="m234.89 135.03-77.61-45.01-77.61-45.01-77.62-45.01v90.02 90.02l77.62 45.01 77.61 45.01 77.61-45.01 77.61-45.01z" fill="#3b3487"/><path d="m157.28 360.08 77.98-45.07 77.9-45.18 76.96-44.78-77.62-45.01-77.61 45.01-77.61 45.01-77.61-45.01-77.61 45.01 77.42 44.95z" fill="#2dd49c"/></svg>

<svg version="1.2" baseProfile="tiny-ps" xmlns="http://www.w3.org/2000/svg" viewBox="0 0 1947 391" width="1947" height="391">
	<title>duck-creek-logo-svg</title>
	<style>
		tspan { white-space:pre }
		.shp0 { fill: #4e4a54 } 
		.shp1 { fill: #9c9896 } 
		.shp2 { fill: #ffa360 } 
		.shp3 { fill: #3b3487 } 
		.shp4 { fill: #7e6bf4 } 
		.shp5 { fill: #2dd49c } 
	</style>
	<g id="Symbols">
		<g id="Navigation">
			<g id="Main-Nav">
				<g id="Layer">
					<g id="Logo/Duck-Creek-Technologies-Horizontal">
						<g id="Layer">
							<path id="Fill-1" fill-rule="evenodd" class="shp0" d="M822.43 76.44C822.43 115.46 793.01 144.05 752.24 144.05L697.62 144.05L697.62 8.83L752.82 8.83C793.2 8.83 822.43 37.22 822.43 76.44ZM799.55 76.63C799.55 49.01 778.97 29.3 752.43 29.3L720.31 29.3L720.31 123.58L753.39 123.58C779.55 123.58 799.55 104.07 799.55 76.63ZM942.47 41.28L942.47 144.06L920.35 144.06L920.35 123.96C913.43 138.26 900.54 144.63 883.81 144.82C860.35 144.82 846.31 129.76 846.31 105.22L846.31 41.28L868.42 41.28L868.42 99.04C868.42 114.5 877.46 123.96 892.27 123.96C909.97 123.58 920.35 109.86 920.35 91.89L920.35 41.28L942.47 41.28ZM1019.9 60.02C1002.2 60.02 989.52 73.35 989.52 92.86C989.52 112.37 1002.2 125.7 1019.9 125.7C1032.78 125.7 1043.17 121.45 1050.09 113.34L1062.4 125.7C1053.17 137.87 1038.36 144.83 1018.94 144.83C988.55 144.83 967.4 123.77 967.4 92.86C967.4 61.76 988.55 40.51 1018.94 40.51C1037.41 40.51 1051.83 46.5 1061.25 57.31L1049.13 71.61C1042.02 64.27 1032.21 59.83 1019.9 60.02ZM1124.74 96.91L1107.44 115.28L1107.44 144.06L1085.32 144.06L1085.32 0.71L1107.44 0.71L1107.44 87.26L1152.63 41.28L1178.01 41.28L1140.13 81.08L1180.9 144.06L1154.75 144.06L1124.74 96.91ZM1327.42 28.53C1300.5 28.53 1279.34 49.39 1279.34 76.05C1279.34 102.71 1300.5 123.77 1327.42 123.77C1340.89 123.77 1354.74 117.59 1364.92 107.74L1378.38 122.8C1364.74 136.32 1345.31 145.02 1326.27 145.02C1286.84 145.02 1256.27 115.08 1256.27 76.25C1256.27 37.8 1287.23 8.25 1327.04 8.25C1346.08 8.25 1365.12 16.17 1378.2 29.11L1364.92 45.72C1355.12 35.1 1341.08 28.53 1327.42 28.53ZM1456.68 40.51L1456.68 61.76C1436.11 60.6 1423.03 72.77 1421.3 90.35L1421.3 144.05L1399.18 144.05L1399.18 41.28L1421.3 41.28L1421.3 61.76C1428.22 47.85 1440.53 40.51 1456.68 40.51ZM1489.95 101.17C1493.41 117.01 1505.53 126.86 1521.68 126.86C1532.84 126.86 1543.03 122.62 1550.53 114.88L1562.26 127.45C1552.26 138.45 1537.64 144.83 1519.95 144.83C1488.41 144.83 1467.64 123.78 1467.64 92.86C1467.64 61.75 1488.99 40.7 1519.37 40.51C1555.33 40.51 1569.95 64.07 1567.26 101.17L1489.95 101.17ZM1548.03 84.94C1547.26 68.32 1536.3 58.28 1519.56 58.28C1503.41 58.28 1491.87 68.52 1489.56 84.94L1548.03 84.94ZM1606.64 101.17C1610.11 117.01 1622.22 126.86 1638.37 126.86C1649.52 126.86 1659.72 122.62 1667.22 114.88L1678.95 127.45C1668.95 138.45 1654.33 144.83 1636.65 144.83C1605.1 144.83 1584.33 123.78 1584.33 92.86C1584.33 61.75 1605.67 40.7 1636.06 40.51C1672.02 40.51 1686.64 64.07 1683.95 101.17L1606.64 101.17ZM1664.72 84.94C1663.95 68.32 1652.99 58.28 1636.25 58.28C1620.1 58.28 1608.56 68.52 1606.25 84.94L1664.72 84.94ZM1748.65 96.91L1731.35 115.28L1731.35 144.06L1709.23 144.06L1709.23 0.71L1731.35 0.71L1731.35 87.26L1776.54 41.28L1801.93 41.28L1764.04 81.08L1804.81 144.06L1778.66 144.06L1748.65 96.91Z" />
							<path id="Fill-19" fill-rule="evenodd" class="shp1" d="M790.8 216.67L790.8 237.15L748.1 237.15L748.1 351.9L725.41 351.9L725.41 237.15L682.91 237.15L682.91 216.67L790.8 216.67ZM808.12 309.01C811.59 324.86 823.7 334.71 839.85 334.71C851 334.71 861.2 330.46 868.7 322.73L880.43 335.29C870.43 346.3 855.81 352.67 838.12 352.67C806.58 352.67 785.81 331.62 785.81 300.71C785.81 269.6 807.15 248.55 837.54 248.35C873.5 248.35 888.12 271.92 885.43 309.01L808.12 309.01ZM866.2 292.79C865.43 276.17 854.47 266.13 837.73 266.13C821.58 266.13 810.04 276.36 807.73 292.79L866.2 292.79ZM955 267.87C937.3 267.87 924.62 281.19 924.62 300.71C924.62 320.22 937.3 333.55 955 333.55C967.88 333.55 978.27 329.3 985.19 321.19L997.5 333.55C988.27 345.72 973.46 352.68 954.04 352.68C923.65 352.68 902.5 331.61 902.5 300.71C902.5 269.6 923.65 248.36 954.04 248.36C972.51 248.36 986.93 254.34 996.34 265.16L984.23 279.46C977.11 272.12 967.31 267.67 955 267.87ZM1118.5 287.96L1118.5 351.9L1096.39 351.9L1096.39 294.14C1096.39 278.68 1087.15 269.22 1071.76 269.22C1053.49 269.41 1042.53 283.13 1042.53 301.29L1042.53 351.9L1020.41 351.9L1020.41 208.56L1042.53 208.56L1042.53 269.22C1049.84 254.73 1062.92 248.36 1080.42 248.36C1104.27 248.36 1118.5 263.42 1118.5 287.96ZM1247.09 287.96L1247.09 351.9L1224.98 351.9L1224.98 294.14C1224.98 278.68 1215.74 269.22 1200.35 269.22C1183.43 269.41 1172.85 281.19 1171.32 297.23L1171.32 351.9L1149.21 351.9L1149.21 249.12L1171.32 249.12L1171.32 268.83C1178.62 254.54 1191.7 248.36 1209.01 248.36C1232.86 248.36 1247.09 263.42 1247.09 287.96ZM1376.57 300.32C1376.57 331.42 1354.83 352.67 1323.29 352.67C1291.56 352.67 1269.84 331.42 1269.84 300.32C1269.84 269.41 1291.56 248.35 1323.29 248.35C1354.83 248.35 1376.57 269.41 1376.57 300.32ZM1291.95 300.71C1291.95 320.6 1304.83 334.13 1323.29 334.13C1341.56 334.13 1354.45 320.6 1354.45 300.71C1354.45 281 1341.56 267.28 1323.29 267.28C1304.83 267.28 1291.95 281 1291.95 300.71ZM1401.85 208.55L1423.96 208.55L1423.96 351.89L1401.85 351.89L1401.85 208.55ZM1555.69 300.32C1555.69 331.42 1533.96 352.67 1502.42 352.67C1470.69 352.67 1448.96 331.42 1448.96 300.32C1448.96 269.41 1470.69 248.35 1502.42 248.35C1533.96 248.35 1555.69 269.41 1555.69 300.32ZM1471.08 300.71C1471.08 320.6 1483.96 334.13 1502.42 334.13C1520.69 334.13 1533.58 320.6 1533.58 300.71C1533.58 281 1520.69 267.28 1502.42 267.28C1483.96 267.28 1471.08 281 1471.08 300.71ZM1674.57 249.13L1674.57 341.85C1674.57 371.41 1653.61 389.95 1621.49 389.95C1605.53 389.95 1591.49 384.94 1578.99 376.44L1588.42 360.4C1598.04 367.55 1608.03 371.61 1620.53 371.61C1639.95 371.61 1652.65 360.21 1652.65 342.43L1652.65 329.49C1645.72 340.7 1634.19 346.88 1618.8 346.88C1591.11 346.88 1572.64 326.78 1572.64 297.23C1572.64 268.25 1590.92 248.55 1618.03 248.36C1633.8 248.16 1645.53 254.54 1652.65 265.74L1652.65 249.13L1674.57 249.13ZM1623.23 266.32C1605.72 266.32 1593.61 279.45 1593.42 297.81C1593.61 316.35 1605.53 329.49 1623.23 329.49C1640.53 329.49 1652.65 316.35 1652.65 297.81C1652.65 279.27 1640.53 266.32 1623.23 266.32ZM1706.11 249.12L1728.03 249.12L1728.03 351.89L1706.11 351.89L1706.11 249.12ZM1717.07 232.9C1709.76 232.9 1704.18 227.3 1704.18 219.77C1704.18 212.03 1709.76 206.43 1717.07 206.43C1724.38 206.43 1729.95 212.03 1729.95 219.77C1729.95 227.3 1724.38 232.9 1717.07 232.9ZM1774.46 309.01C1777.94 324.86 1790.05 334.71 1806.2 334.71C1817.35 334.71 1827.54 330.46 1835.04 322.73L1846.78 335.29C1836.78 346.3 1822.16 352.67 1804.47 352.67C1772.93 352.67 1752.16 331.62 1752.16 300.71C1752.16 269.6 1773.5 248.55 1803.89 248.35C1839.85 248.35 1854.47 271.92 1851.78 309.01L1774.46 309.01ZM1832.54 292.79C1831.77 276.17 1820.81 266.13 1804.08 266.13C1787.92 266.13 1776.39 276.36 1774.08 292.79L1832.54 292.79ZM1906.63 265.93C1897.98 265.93 1891.64 268.83 1891.64 276.17C1891.64 295.11 1946.06 284.86 1945.87 322.15C1945.87 343.2 1927.21 352.67 1906.63 352.67C1891.64 352.67 1875.66 347.66 1865.48 338.37L1873.36 322.54C1882.21 330.46 1896.44 335.28 1907.6 335.28C1917.02 335.28 1924.33 332.01 1924.33 324.27C1924.33 303.22 1870.48 315.01 1870.67 277.91C1870.67 257.05 1888.75 248.16 1908.36 248.16C1921.25 248.16 1934.9 252.03 1944.13 258.59L1936.05 275.01C1927.02 269.41 1915.67 265.93 1906.63 265.93Z" />
							<path id="Fill-38" class="shp2" d="M545.34 135.03L467.73 90.02L467.73 180.04L545.34 135.03Z" />
							<path id="Fill-39" class="shp3" d="M390.12 135.03L312.5 180.04L390.12 225.05L467.73 180.04L467.73 90.02L390.12 135.03Z" />
							<path id="Fill-40" class="shp4" d="M234.89 45.01L157.28 90.02L234.89 135.03L312.5 180.04L312.5 90.02L312.5 0L234.89 45.01Z" />
							<path id="Fill-41" class="shp3" d="M234.89 135.03L157.28 90.02L79.67 45.01L2.05 0L2.05 90.02L2.05 180.04L79.67 225.05L157.28 270.06L234.89 225.05L312.5 180.04L234.89 135.03Z" />
							<path id="Fill-42" class="shp5" d="M157.28 360.08L235.26 315.01L313.16 269.83L390.12 225.05L312.5 180.04L234.89 225.05L157.28 270.06L79.67 225.05L2.06 270.06L79.48 315.01L157.28 360.08Z" />
						</g>
					</g>
				</g>
			</g>
		</g>
	</g>
</svg>
